X: 2
T: You're a Grand Old Flag
P: piffero primo a0868
O: Geo M Cohan
%R: march
F: http://ancients.sudburymuster.org/mus/ssp/pdf/clemC0.pdf
Z: 2020 John Chambers <jc:trillian.mit.edu>
M: 2/4
L: 1/16
K: D
af |\
d2d2 d2BA | de2c d2BA | d2BA d2BA | c4- c2AB |\
c2d2 e3A | d2e2 f3d | ef2d ef2d | e4- ez af |
d2d2 d2BA | de2c d2c=c | B^d2f B2f2 | e4- ez AA |\
d3c d2f2 | e3^d e2cA | Bd2B d2c2 |1 d2z2z2 :|2 d4- d2 |]

%%sep 1 1 200
% %center - - - - - - - - - -
% Whatever we want at the bottom of each set belongs here.
